img/instagram.svg

<svg width="22" height="22" viewBox="0 0 22 22" fill="none" xmlns="http://www.w3.org/2000/svg">
<circle cx="11" cy="11" r="11" fill="#FFFDFB"/>
<path d="M13.1055 11C13.1055 12.1628 12.1628 13.1055 11 13.1055C9.83716 13.1055 8.89453 12.1628 8.89453 11C8.89453 9.83716 9.83716 8.89453 11 8.89453C12.1628 8.89453 13.1055 9.83716 13.1055 11Z" fill="#1A212F"/>
<path d="M15.924 7.27487C15.8227 7.00061 15.6613 6.75236 15.4515 6.54859C15.2477 6.33879 14.9996 6.17732 14.7252 6.07611C14.5026 5.98967 14.1683 5.88678 13.5524 5.85874C12.8863 5.82836 12.6865 5.82182 11 5.82182C9.31331 5.82182 9.11357 5.8282 8.44756 5.85858C7.83173 5.88678 7.49721 5.98967 7.27481 6.07611C7.00038 6.17732 6.75214 6.33879 6.54854 6.54859C6.33873 6.75236 6.17726 7.00044 6.07588 7.27487C5.98944 7.49743 5.88655 7.83195 5.85852 8.44778C5.82814 9.1138 5.82159 9.31353 5.82159 11.0002C5.82159 12.6867 5.82814 12.8865 5.85852 13.5527C5.88655 14.1685 5.98944 14.5028 6.07588 14.7254C6.17726 14.9998 6.33856 15.2479 6.54837 15.4517C6.75214 15.6615 7.00021 15.823 7.27464 15.9242C7.49721 16.0108 7.83173 16.1137 8.44756 16.1417C9.11357 16.1721 9.31314 16.1785 10.9998 16.1785C12.6867 16.1785 12.8864 16.1721 13.5523 16.1417C14.1681 16.1137 14.5026 16.0108 14.7252 15.9242C15.2761 15.7117 15.7115 15.2763 15.924 14.7254C16.0104 14.5028 16.1133 14.1685 16.1415 13.5527C16.1719 12.8865 16.1782 12.6867 16.1782 11.0002C16.1782 9.31353 16.1719 9.1138 16.1415 8.44778C16.1134 7.83195 16.0106 7.49743 15.924 7.27487ZM11 14.2435C9.20857 14.2435 7.75636 12.7915 7.75636 11.0001C7.75636 9.20863 9.20857 7.75659 11 7.75659C12.7913 7.75659 14.2435 9.20863 14.2435 11.0001C14.2435 12.7915 12.7913 14.2435 11 14.2435ZM14.3717 8.38635C13.9531 8.38635 13.6137 8.04696 13.6137 7.62835C13.6137 7.20974 13.9531 6.87036 14.3717 6.87036C14.7903 6.87036 15.1297 7.20974 15.1297 7.62835C15.1295 8.04696 14.7903 8.38635 14.3717 8.38635Z" fill="#1A212F"/>
<path d="M11 0C4.9258 0 0 4.9258 0 11C0 17.0742 4.9258 22 11 22C17.0742 22 22 17.0742 22 11C22 4.9258 17.0742 0 11 0ZM17.2783 13.6041C17.2478 14.2765 17.1408 14.7356 16.9847 15.1374C16.6566 15.9859 15.9859 16.6566 15.1374 16.9847C14.7358 17.1408 14.2765 17.2476 13.6043 17.2783C12.9307 17.309 12.7156 17.3164 11.0002 17.3164C9.28461 17.3164 9.0696 17.309 8.39586 17.2783C7.72363 17.2476 7.2644 17.1408 6.86275 16.9847C6.44112 16.8261 6.05943 16.5775 5.74388 16.2561C5.42262 15.9407 5.17404 15.5589 5.01543 15.1374C4.85933 14.7358 4.75241 14.2765 4.72186 13.6043C4.69081 12.9306 4.68359 12.7154 4.68359 11C4.68359 9.28461 4.69081 9.06943 4.72169 8.39586C4.75224 7.72346 4.85899 7.2644 5.01509 6.86258C5.17371 6.44112 5.42245 6.05927 5.74388 5.74388C6.05927 5.42245 6.44112 5.17387 6.86258 5.01526C7.2644 4.85916 7.72346 4.75241 8.39586 4.72169C9.06943 4.69098 9.28461 4.68359 11 4.68359C12.7154 4.68359 12.9306 4.69098 13.6041 4.72186C14.2765 4.75241 14.7356 4.85916 15.1374 5.01509C15.5589 5.17371 15.9407 5.42245 16.2563 5.74388C16.5775 6.05943 16.8263 6.44112 16.9847 6.86258C17.141 7.2644 17.2478 7.72346 17.2785 8.39586C17.3092 9.06943 17.3164 9.28461 17.3164 11C17.3164 12.7154 17.3092 12.9306 17.2783 13.6041Z" fill="#1A212F"/>
</svg>

<svg width="22" height="22" fill="none" xmlns="http://www.w3.org/2000/svg"><circle cx="11" cy="11" r="11" fill="#FFFDFB"/><path d="M13.105 11a2.106 2.106 0 11-4.21 0 2.106 2.106 0 014.21 0z" fill="#1A212F"/><path d="M15.924 7.275a1.958 1.958 0 00-.473-.726 1.956 1.956 0 00-.726-.473c-.222-.086-.557-.19-1.173-.217-.666-.03-.865-.037-2.552-.037s-1.886.006-2.552.037c-.616.028-.95.13-1.173.217a1.954 1.954 0 00-.726.473 1.94 1.94 0 00-.473.726c-.087.222-.19.557-.217 1.173-.03.666-.037.866-.037 2.552 0 1.687.006 1.886.037 2.553.028.615.13.95.217 1.172.101.275.263.523.472.727.204.21.452.371.727.472.222.087.557.19 1.173.218.666.03.865.037 2.552.037s1.886-.007 2.552-.037c.616-.028.95-.131 1.173-.218a2.092 2.092 0 001.199-1.199c.086-.222.19-.556.218-1.172.03-.667.036-.866.036-2.553 0-1.686-.006-1.886-.037-2.552-.028-.616-.13-.95-.217-1.173zM11 14.243a3.243 3.243 0 110-6.486 3.243 3.243 0 010 6.486zm3.372-5.857a.758.758 0 110-1.516.758.758 0 010 1.516z" fill="#1A212F"/><path d="M11 0C4.926 0 0 4.926 0 11s4.926 11 11 11 11-4.926 11-11S17.074 0 11 0zm6.278 13.604c-.03.673-.137 1.132-.293 1.533a3.23 3.23 0 01-1.848 1.848c-.401.156-.86.263-1.533.293-.673.031-.888.038-2.604.038-1.715 0-1.93-.007-2.604-.038-.672-.03-1.132-.137-1.533-.293a3.095 3.095 0 01-1.12-.729 3.095 3.095 0 01-.728-1.119c-.156-.401-.263-.86-.293-1.533-.031-.673-.038-.889-.038-2.604s.007-1.93.038-2.604c.03-.673.137-1.132.293-1.533.159-.422.407-.804.729-1.12.315-.32.697-.57 1.119-.728.401-.156.86-.263 1.533-.293.673-.031.889-.038 2.604-.038s1.93.007 2.604.038c.673.03 1.132.137 1.533.293.422.159.804.407 1.12.729.32.315.57.697.728 1.119.156.401.263.86.294 1.533.03.673.037.889.037 2.604s-.007 1.93-.038 2.604z" fill="#1A212F"/></svg>
